X: 40115
T: Tide At The Taing
R: waltz
M: 3/4
K: Gmajor
|:F3 F F2|F2 A2 c2|d3 d d2|1 d2 c2 A2|d3 d d2|d2 c2 A2|
G2 A2 c2|A2 G2 G2:|2 d3 e f2|d2 c2 A2|G6|F4 c2||
d3 d d2|d2 c2 A2|c3 d c2|c2 d2 e2|f2 e2 d2|c2 A2 G2|
F3 F F2|F2 A2 c2|d3 d d2|d2 c2 A2|d3 e f2|d2 c2 A2|G6|F6||

